flaticon/real-estate/house-key-2.svg

<svg xmlns="http://www.w3.org/2000/svg" width="32" height="32" viewBox="0 0 24 24">
    <path d="M 22.914062 8.847656 L 13.71875 0.691406 C 12.757812 -0.230469 11.242188 -0.230469 10.28125 0.691406 L 7.203125 3.488281 L 7.203125 2.410156 L 7.601562 2.410156 C 7.839844 2.410156 8 2.25 8 2.007812 L 8 0.410156 C 8 0.171875 7.839844 0.0117188 7.601562 0.0117188 L 2.804688 0.0117188 C 2.5625 0.0117188 2.402344 0.171875 2.402344 0.410156 L 2.402344 2.007812 C 2.402344 2.25 2.5625 2.410156 2.804688 2.410156 L 3.203125 2.410156 L 3.203125 7.007812 L 1.085938 8.847656 C 0.804688 9.125 0.726562 9.527344 0.84375 9.847656 C 0.964844 10.164062 1.324219 10.40625 1.683594 10.40625 L 3.203125 10.40625 L 3.203125 21.601562 L 2.804688 21.601562 C 2.5625 21.601562 2.402344 21.761719 2.402344 22 L 2.402344 23.601562 C 2.402344 23.839844 2.5625 24 2.804688 24 L 21.195312 24 C 21.4375 24 21.597656 23.839844 21.597656 23.558594 L 21.597656 21.960938 C 21.597656 21.722656 21.4375 21.5625 21.195312 21.5625 L 20.796875 21.5625 L 20.796875 10.367188 L 22.316406 10.367188 C 22.714844 10.367188 23.035156 10.164062 23.15625 9.804688 C 23.273438 9.484375 23.195312 9.085938 22.914062 8.847656 Z M 22.394531 9.566406 C 22.355469 9.605469 22.316406 9.605469 22.316406 9.605469 L 20.394531 9.605469 C 20.15625 9.605469 19.996094 9.765625 19.996094 10.003906 L 19.996094 22 C 19.996094 22.242188 20.15625 22.402344 20.394531 22.402344 L 20.796875 22.402344 L 20.796875 23.199219 L 3.203125 23.199219 L 3.203125 22.402344 L 3.601562 22.402344 C 3.84375 22.402344 4.003906 22.242188 4.003906 22 L 4.003906 10.003906 C 4.003906 9.765625 3.84375 9.605469 3.601562 9.605469 L 1.683594 9.605469 C 1.644531 9.605469 1.644531 9.605469 1.605469 9.566406 C 1.605469 9.527344 1.605469 9.484375 1.644531 9.445312 L 3.882812 7.527344 C 3.964844 7.445312 4.003906 7.328125 4.003906 7.207031 L 4.003906 2.007812 C 4.003906 1.769531 3.84375 1.609375 3.601562 1.609375 L 3.203125 1.609375 L 3.203125 0.808594 L 7.203125 0.808594 L 7.203125 1.609375 L 6.800781 1.609375 C 6.5625 1.609375 6.402344 1.769531 6.402344 2.007812 L 6.402344 4.40625 C 6.402344 4.566406 6.480469 4.726562 6.640625 4.847656 C 6.800781 4.886719 6.960938 4.886719 7.082031 4.769531 L 10.839844 1.328125 C 11.480469 0.691406 12.480469 0.691406 13.160156 1.328125 L 22.355469 9.484375 C 22.394531 9.484375 22.4375 9.527344 22.394531 9.566406 Z M 22.394531 9.566406"/>
    <path d="M 15.199219 7.605469 C 13.199219 7.605469 11.601562 9.207031 11.601562 11.207031 C 11.601562 11.441406 11.625 11.671875 11.664062 11.894531 L 5.722656 17.683594 C 5.601562 17.761719 5.5625 17.921875 5.601562 18.042969 L 6.003906 20.042969 C 6.042969 20.242188 6.203125 20.363281 6.402344 20.363281 L 8.402344 20.363281 C 8.640625 20.363281 8.800781 20.203125 8.839844 20.042969 L 8.839844 18.84375 L 10.441406 18.84375 C 10.679688 18.84375 10.839844 18.683594 10.839844 18.441406 L 10.839844 17.242188 L 12.039062 17.242188 C 12.28125 17.242188 12.441406 17.082031 12.441406 16.84375 L 12.441406 15.644531 L 13.640625 15.644531 C 13.757812 15.644531 13.878906 15.5625 13.960938 15.484375 C 13.960938 15.484375 14.292969 15.089844 14.589844 14.753906 C 14.785156 14.785156 14.992188 14.804688 15.199219 14.804688 C 17.199219 14.804688 18.796875 13.203125 18.796875 11.207031 C 18.796875 9.207031 17.199219 7.605469 15.199219 7.605469 Z M 13.398438 14.765625 L 12 14.765625 C 11.761719 14.765625 11.601562 14.921875 11.601562 15.164062 L 11.601562 16.363281 L 10.402344 16.363281 C 10.160156 16.363281 10 16.523438 10 16.761719 L 10 17.960938 L 8.402344 17.960938 C 8.160156 17.960938 8 18.121094 8 18.363281 L 8 19.5625 L 6.722656 19.5625 L 6.441406 18.121094 L 11.921875 12.726562 C 12.003906 12.898438 12.101562 13.066406 12.210938 13.222656 C 12.210938 13.222656 12.214844 13.222656 12.214844 13.226562 C 12.226562 13.242188 12.238281 13.257812 12.25 13.277344 C 12.605469 13.785156 13.089844 14.195312 13.660156 14.464844 C 13.550781 14.578125 13.476562 14.6875 13.398438 14.765625 Z M 15.199219 14.003906 C 14.953125 14.003906 14.714844 13.972656 14.488281 13.914062 C 13.503906 13.628906 12.757812 12.875 12.519531 11.925781 C 12.507812 11.890625 12.492188 11.855469 12.46875 11.824219 C 12.425781 11.625 12.398438 11.417969 12.398438 11.207031 C 12.398438 9.644531 13.640625 8.40625 15.199219 8.40625 C 16.757812 8.40625 17.996094 9.644531 17.996094 11.207031 C 17.996094 12.765625 16.757812 14.003906 15.199219 14.003906 Z M 15.199219 14.003906"/>
    <path d="M 15.597656 9.207031 C 14.71875 9.207031 14 9.925781 14 10.804688 C 14 11.683594 14.71875 12.40625 15.597656 12.40625 C 16.476562 12.40625 17.199219 11.683594 17.199219 10.804688 C 17.199219 9.925781 16.476562 9.207031 15.597656 9.207031 Z M 15.597656 11.605469 C 15.160156 11.605469 14.800781 11.246094 14.800781 10.804688 C 14.800781 10.367188 15.160156 10.003906 15.597656 10.003906 C 16.039062 10.003906 16.398438 10.367188 16.398438 10.804688 C 16.398438 11.246094 16.039062 11.605469 15.597656 11.605469 Z M 15.597656 11.605469"/>
</svg>

<svg xmlns="http://www.w3.org/2000/svg" width="32" height="32" viewBox="0 0 24 24">
    <path d="M22.914 8.848L13.72.69a2.482 2.482 0 0 0-3.438 0L7.203 3.488V2.41h.399c.238 0 .398-.16.398-.402V.41c0-.238-.16-.398-.398-.398H2.805c-.243 0-.403.16-.403.398v1.598c0 .242.16.402.403.402h.398v4.598l-2.117 1.84a.962.962 0 0 0-.242 1c.12.316.48.558.84.558h1.52v11.196h-.4c-.241 0-.402.16-.402.398v1.602c0 .238.16.398.403.398h18.39c.242 0 .403-.16.403-.441V21.96c0-.238-.16-.398-.403-.398h-.398V10.367h1.52c.398 0 .718-.203.84-.562a.875.875 0 0 0-.243-.957zm-.52.718c-.039.04-.078.04-.078.04h-1.921c-.239 0-.399.16-.399.398V22c0 .242.16.402.399.402h.402v.797H3.203v-.797h.399c.242 0 .402-.16.402-.402V10.004c0-.238-.16-.399-.402-.399H1.684c-.04 0-.04 0-.079-.039 0-.039 0-.082.04-.12l2.238-1.919a.449.449 0 0 0 .12-.32v-5.2c0-.237-.16-.398-.401-.398h-.399v-.8h4v.8h-.402c-.239 0-.399.16-.399.399v2.398c0 .16.078.32.239.442.16.039.32.039.441-.078l3.758-3.442c.64-.637 1.64-.637 2.32 0l9.195 8.156c.04 0 .082.043.04.082zm0 0"/>
    <path d="M15.2 7.605c-2 0-3.598 1.602-3.598 3.602 0 .234.023.465.062.688l-5.941 5.789a.32.32 0 0 0-.121.359l.402 2c.039.2.2.32.398.32h2a.44.44 0 0 0 .438-.32v-1.2h1.601c.239 0 .399-.16.399-.402v-1.199h1.2c.241 0 .401-.16.401-.398v-1.2h1.2c.117 0 .238-.082.32-.16 0 0 .332-.394.629-.73.195.031.402.05.61.05 2 0 3.597-1.6 3.597-3.597 0-2-1.598-3.602-3.598-3.602zm-1.802 7.16H12c-.238 0-.398.157-.398.4v1.198h-1.2c-.242 0-.402.16-.402.399v1.199H8.402c-.242 0-.402.16-.402.402v1.2H6.723L6.44 18.12l5.48-5.394a3.495 3.495 0 0 0 .294.5 3.593 3.593 0 0 0 1.445 1.238c-.11.113-.183.223-.262.3zm1.801-.761c-.246 0-.484-.031-.71-.09-.985-.285-1.731-1.039-1.97-1.988a.354.354 0 0 0-.05-.102 2.93 2.93 0 0 1-.07-.617c0-1.562 1.242-2.8 2.8-2.8a2.78 2.78 0 0 1 2.797 2.8 2.78 2.78 0 0 1-2.797 2.797zm0 0"/>
    <path d="M15.598 9.207c-.88 0-1.598.719-1.598 1.598 0 .879.719 1.601 1.598 1.601.879 0 1.601-.722 1.601-1.601 0-.88-.722-1.598-1.601-1.598zm0 2.398a.801.801 0 0 1 0-1.601c.441 0 .8.363.8.8 0 .442-.359.801-.8.801zm0 0"/>
</svg>
